X:1     %Music
T:Henry Martin
B:Jones, Lewis, 1998,Miss Broadwood's Delight,Ferret Publ., Sutton Coldfield
Z:Lucy Broadwood
S:Henry Burstow
F:http://www.folkinfo.org/songs
M:3/4     %Meter
L:1/8     %
K:D
D2 |(E2F2) A2 |A2 F2 A2 |A2 G2 E2 | D2 z2
w:There were_ three bro-thers in mer-ry Scot-land
 D2 |G2 F2 G2 |A2 d2 c2 |A6-|A2 z2
w:ln mer-ry Scot-land live-ed these, 
 D2 |[A2F2] [d2A2] d2 |(c2B2) A2 |(A2D2) E2 | (F2E2) D2 |(=c4d3/2c/) |A2 z2
w: And they did cast lots_ one with_ the o_ ther o__ ther, 
 D2 |F2 A2 (=cB) | A3 G E2 |D6-|HD4  |]
w:To know who should_ rob the salt seas. *